libs/ui/packages/crypto-icons/src/svg/AST.svg

<svg width="24" height="24" viewBox="0 0 24 24" fill="none">
<path d="M12.0075 4.5L19.5 12.105L19.2188 12.36C19.0909 12.4808 18.9577 12.5959 18.8197 12.705C18.5753 12.9008 18.3172 13.0957 18.0577 13.269C17.0084 13.9795 15.8413 14.498 14.6108 14.8005C13.7588 15.0105 12.8843 15.1155 12.0075 15.1155C10.8975 15.1155 9.795 14.9505 8.7375 14.613C7.65563 14.2732 6.63465 13.7636 5.71275 13.1033C5.39398 12.8695 5.08568 12.6217 4.78875 12.3608L4.5 12.105L5.32125 11.271L12.0075 4.5ZM18.561 12.3525C18.672 12.2625 18.7823 12.1725 18.879 12.075L12 5.1075L5.12175 12.075L5.262 12.195C5.4915 12.3825 5.72025 12.57 5.95725 12.735C7.71983 14.0015 9.83712 14.6794 12.0075 14.6722C12.8526 14.6713 13.6945 14.568 14.5148 14.3647C15.6971 14.0726 16.8187 13.5745 17.8282 12.8932C18.0817 12.7268 18.3262 12.546 18.561 12.3533V12.3525ZM7.2885 11.9925C8.73684 11.3472 10.3034 11.0098 11.889 11.0017C13.7535 11.0017 15.5872 11.4967 17.1923 12.4432L17.2965 12.5033L17.1923 12.5707C16.1317 13.2516 14.9482 13.7183 13.7085 13.9447L13.6793 13.9523L13.6567 13.9373C11.768 12.7605 9.58738 12.1361 7.362 12.135H6.9555L7.2885 11.9925ZM13.7677 13.494C14.7067 13.314 15.6023 12.9915 16.4303 12.5258C15.0216 11.8077 13.4626 11.4345 11.8815 11.4367C10.929 11.4367 9.98175 11.5642 9.06375 11.8193C10.7288 12.0443 12.3293 12.6143 13.7677 13.494ZM16.2457 14.973C15.9116 15.4275 15.5562 15.866 15.1807 16.287L12.0075 19.5L9.774 17.2402L10.2465 17.2103C11.8265 17.1124 13.3628 16.6526 14.7367 15.8663C15.1508 15.6638 16.2457 14.973 16.2457 14.973ZM10.7355 17.601L12.0075 18.8917L14.256 16.6095C13.1482 17.1398 11.9572 17.4752 10.7355 17.601Z" fill="#0061FF"/>
</svg>

<svg width="24" height="24" viewBox="0 0 24 24" fill="none"><path fill="#0061ff" d="m12.008 4.5 7.492 7.605-.281.255q-.192.18-.4.345A10.7 10.7 0 0 1 14.61 14.8a11 11 0 0 1-2.602.316c-1.11 0-2.213-.165-3.27-.503a10.7 10.7 0 0 1-3.025-1.51 14 14 0 0 1-.924-.742l-.289-.256.821-.834zm6.553 7.852c.111-.09.221-.18.318-.277L12 5.108l-6.878 6.967.14.12c.23.188.458.375.695.54a10.3 10.3 0 0 0 6.05 1.937c.846 0 1.688-.104 2.508-.307a10.4 10.4 0 0 0 3.313-1.472q.38-.25.733-.54m-11.272-.36a11.45 11.45 0 0 1 4.6-.99c1.865 0 3.698.495 5.303 1.441l.105.06-.105.068a9.7 9.7 0 0 1-3.483 1.374l-.03.007-.022-.015a11.9 11.9 0 0 0-6.295-1.802h-.407zm6.479 1.502a8.8 8.8 0 0 0 2.662-.968 10 10 0 0 0-4.548-1.09c-.953 0-1.9.128-2.818.383 1.665.225 3.265.795 4.704 1.675m2.478 1.479q-.502.682-1.065 1.314L12.008 19.5l-2.234-2.26.473-.03a10.3 10.3 0 0 0 4.49-1.344c.414-.202 1.509-.893 1.509-.893m-5.51 2.628 1.271 1.29 2.249-2.281a10.7 10.7 0 0 1-3.52.991"/></svg>
